remix/Device/restart-line.svg

<svg viewBox="0 0 24 24" fill="currentColor" xmlns="http://www.w3.org/2000/svg"><path d="M18.5374 19.5674C16.7844 21.0831 14.4993 22 12 22C6.47715 22 2 17.5228 2 12C2 6.47715 6.47715 2 12 2C17.5228 2 22 6.47715 22 12C22 14.1361 21.3302 16.1158 20.1892 17.7406L17 12H20C20 7.58172 16.4183 4 12 4C7.58172 4 4 7.58172 4 12C4 16.4183 7.58172 20 12 20C14.1502 20 16.1022 19.1517 17.5398 17.7716L18.5374 19.5674Z"/></svg>

<svg viewBox="0 0 24 24" xmlns="http://www.w3.org/2000/svg"><path fill="none" d="M0 0h24v24H0Z"/><path d="M18.53 19.567v0c-1.82 1.57-4.14 2.43-6.54 2.433 -5.523 0-10-4.477-10-10s4.477-10 10-10 10 4.477 10 10c0 2.13-.67 4.116-1.81 5.74L16.99 12h3v0c-.01-4.42-3.59-8-8.01-8s-8 3.58-8 8c0 4.41 3.58 7.99 8 7.99 2.06-.01 4.04-.8 5.53-2.23l.99 1.79Z"/></svg>
